X:1
T:Title
%%score { 1 | ( 2 3 ) }
L:1/8
M:4/4
K:F
V:1 treble nm="Grand Piano"
V:2 bass 
V:3 bass 
V:1
 z4 z2[Q:1/4=100] c>d | c2 A2 A2 A>B | A2 [EG]2 F2 F>F | E2 [EG]2 [GB]2 [Bd]2 | [Bd]4 [Ac]2 c>d | %5
 c2 A2 A2 A>B | A2 [B,EG]2 [A,DF]2 [A,DF][A,D^F] | .[G,DG]2 [DB][Dd] [Fc]2 [FA]2 |[M:3/4] G4 F2 | %9
[M:1/4] E>[DF] |[M:4/4] [EG]2 [FG]2 [EG]2 [EG]>[Ec] |[M:3/4] [Ec]2 [D=B]2 [DB]2 | %12
[M:1/4] [D=B]>[Ec] |[M:4/4] [Fd]2 [D=B]2 [CA]2 [DB]2 | [Ec]4 [EG]2 [CE]>[DF] | %15
 [EG]2 [FG]2 [EG]2 [EG]>[EG] | [FA]2 [G=B]2 [Gc]2 [Gd]>[Gd] | [Ge]2 [Gc]2 [Ge]2 [Fd]2 | %18
[M:9/8] [Fd]3- [Fd] [Ec]2- [Ec][Ec]>[Ed] |[M:4/4] c2 A2 A2 A>B | A2 [EG]2 F2 F>F | %21
 E2 [EG]2 [GB]2 [Bd]2 | [Bd]4 [Ac]2 c>d | c2 A2 A2 A>B | A2 [B,EG]2 [A,DF]2 [A,DF][A,D^F] | %25
 .[G,DG]2 [DB][Dd] [Fc]2 [FA]2 |[M:7/4] G4 F2 z2 z2 z4 |] %27
V:2
 z4 z2 [F,A,F]>[F,B,F] | [F,A,F]2 [F,CF]2 [F,CF]2 [F,CF]>[F,DF] | %2
 [F,CF]2 [C,B,]2 [F,A,]2 [F,A,C]>[F,A,C] | [C,G,C]2 [C,C]2 [C,C]2 [C,C]2 | %4
 [F,C]4 [F,C]2 [F,A,F]>[F,B,F] | [F,A,F]2 [F,CF]2 [F,CF]2 [F,CF]>[F,DF] | [F,CF]2 C,2 D,2 D,C, | %7
 z A[B,,G,][G,,B,] [C,A,]2 [C,C]2 |[M:3/4] [C,B,C]4 [F,A,C]2 |[M:1/4] [C,G,C]>[C,G,] | %10
[M:4/4] [C,C]2 [D,=B,]2 [E,C]2 [C,C]>[C,G,] |[M:3/4] [G,,G,]2 [G,,G,]2 [G,,G,]2 | %12
[M:1/4] [G,,G,]>[G,,G,] |[M:4/4] [G,,G,]2 [G,,G,]2 [G,,G,]2 [G,,G,]2 | %14
 [C,G,]4 [C,C]2 [C,G,]>[C,G,] | [C,C]2 [D,=B,]2 [E,C]2 [C,C]>[C,C] | %16
 [F,C]2 [F,D]2 [E,C]2 [G,=B,]>[G,B,] | [C,C]2 [E,C]2 [G,C]2 [G,,G,]2 | %18
[M:9/8] [G,,G,]3- [G,,G,] [C,G,]2- [C,G,][C,B,]>[C,B,] | %19
[M:4/4] [F,A,F]2 [F,CF]2 [F,CF]2 [F,CF]>[F,DF] | [F,CF]2 [C,B,]2 [F,A,]2 [F,A,C]>[F,A,C] | %21
 [C,G,C]2 [C,C]2 [C,C]2 [C,C]2 | [F,C]4 [F,C]2 [F,A,F]>[F,B,F] | %23
 [F,A,F]2 [F,CF]2 [F,CF]2 [F,CF]>[F,DF] | [F,CF]2 C,2 D,2 D,C, | z A[B,,G,][G,,B,] [C,A,]2 [C,C]2 | %26
[M:7/4] [C,B,C]4 [F,A,C]2 z2 z2 z4 |] %27
V:3
 x8 | x8 | x8 | x8 | x8 | x8 | x8 | B,,2 z2 z4 |[M:3/4] x6 |[M:1/4] x2 |[M:4/4] x8 |[M:3/4] x6 | %12
[M:1/4] x2 |[M:4/4] x8 | x8 | x8 | x8 | x8 |[M:9/8] x9 |[M:4/4] x8 | x8 | x8 | x8 | x8 | x8 | %25
 B,,2 z2 z4 |[M:7/4] x14 |] %27

